build/svg/cmd/lc_spellonline.svg

<?xml version="1.0" encoding="UTF-8" standalone="no"?>
<svg
   xmlns:dc="http://purl.org/dc/elements/1.1/"
   xmlns:cc="http://creativecommons.org/ns#"
   xmlns:rdf="http://www.w3.org/1999/02/22-rdf-syntax-ns#"
   xmlns:svg="http://www.w3.org/2000/svg"
   xmlns="http://www.w3.org/2000/svg"
   xmlns:sodipodi="http://sodipodi.sourceforge.net/DTD/sodipodi-0.dtd"
   xmlns:inkscape="http://www.inkscape.org/namespaces/inkscape"
   viewBox="0 0 24 24"
   version="1.1"
   id="svg6"
   sodipodi:docname="lc_spellonline.svg"
   inkscape:version="0.92.5 (2060ec1f9f, 2020-04-08)"
   inkscape:export-filename="/home/jupiter007/Libreoffice yaru theme fullcolor/build/cmd/lc_spellonline.png"
   inkscape:export-xdpi="96"
   inkscape:export-ydpi="96">
  <metadata
     id="metadata12">
    <rdf:RDF>
      <cc:Work
         rdf:about="">
        <dc:format>image/svg+xml</dc:format>
        <dc:type
           rdf:resource="http://purl.org/dc/dcmitype/StillImage" />
      </cc:Work>
    </rdf:RDF>
  </metadata>
  <defs
     id="defs10" />
  <sodipodi:namedview
     pagecolor="#ffffff"
     bordercolor="#666666"
     borderopacity="1"
     objecttolerance="10"
     gridtolerance="10"
     guidetolerance="10"
     inkscape:pageopacity="0"
     inkscape:pageshadow="2"
     inkscape:window-width="1920"
     inkscape:window-height="1011"
     id="namedview8"
     showgrid="true"
     inkscape:zoom="19.666667"
     inkscape:cx="-2.3431699"
     inkscape:cy="7.1024836"
     inkscape:window-x="0"
     inkscape:window-y="32"
     inkscape:window-maximized="1"
     inkscape:current-layer="svg6">
    <inkscape:grid
       type="xygrid"
       id="grid828" />
  </sodipodi:namedview>
  <path
     inkscape:connector-curvature="0"
     id="path815"
     d="m 6,19 c -0.416667,0 -0.7662926,0.237521 -0.9785156,0.492188 -0.212222,0.254666 -0.34375,0.535156 -0.46875,0.785156 -0.125,0.25 -0.243472,0.46951 -0.34375,0.589844 C 4.1087074,20.987521 4.083333,21 4,21 v 1 c 0.416667,0 0.7662926,-0.237521 0.9785156,-0.492188 0.212222,-0.254666 0.34375,-0.535156 0.46875,-0.785156 0.125,-0.25 0.243472,-0.46951 0.34375,-0.589844 C 5.8912926,20.012479 5.916667,20 6,20 c 0.08333,0 0.1087074,0.01248 0.2089844,0.132812 0.100278,0.120334 0.21875,0.339844 0.34375,0.589844 0.125,0.25 0.256528,0.53049 0.46875,0.785156 C 7.2337074,21.762479 7.583333,22 8,22 c 0.416667,0 0.7662926,-0.237521 0.9785156,-0.492188 0.212222,-0.254666 0.34375,-0.535156 0.46875,-0.785156 0.125,-0.25 0.243472,-0.46951 0.34375,-0.589844 C 9.8912926,20.012479 9.916667,20 10,20 c 0.08333,0 0.108707,0.01248 0.208984,0.132812 0.100278,0.120334 0.21875,0.339844 0.34375,0.589844 0.125,0.25 0.256528,0.53049 0.46875,0.785156 C 11.233707,21.762479 11.583333,22 12,22 c 0.416667,0 0.766293,-0.237521 0.978516,-0.492188 0.212222,-0.254666 0.34375,-0.535156 0.46875,-0.785156 0.125,-0.25 0.243472,-0.46951 0.34375,-0.589844 C 13.891293,20.012479 13.916667,20 14,20 c 0.08333,0 0.108707,0.01248 0.208984,0.132812 0.100278,0.120334 0.21875,0.339844 0.34375,0.589844 0.125,0.25 0.256528,0.53049 0.46875,0.785156 C 15.233707,21.762479 15.583333,22 16,22 c 0.416667,0 0.766293,-0.237521 0.978516,-0.492188 0.212222,-0.254666 0.34375,-0.535156 0.46875,-0.785156 0.125,-0.25 0.243472,-0.46951 0.34375,-0.589844 C 17.891293,20.012479 17.916667,20 18,20 c 0.08333,0 0.108707,0.01248 0.208984,0.132812 0.100278,0.120334 0.21875,0.339844 0.34375,0.589844 0.125,0.25 0.256528,0.53049 0.46875,0.785156 C 19.233707,21.762479 19.583333,22 20,22 v -1 c -0.08333,0 -0.108707,-0.01248 -0.208984,-0.132812 -0.100278,-0.120334 -0.21875,-0.339844 -0.34375,-0.589844 -0.125,-0.25 -0.256528,-0.53049 -0.46875,-0.785156 C 18.766293,19.237521 18.416667,19 18,19 c -0.416667,0 -0.766293,0.237521 -0.978516,0.492188 -0.212222,0.254666 -0.34375,0.535156 -0.46875,0.785156 -0.125,0.25 -0.243472,0.46951 -0.34375,0.589844 C 16.108707,20.987521 16.083333,21 16,21 c -0.08333,0 -0.108707,-0.01248 -0.208984,-0.132812 -0.100278,-0.120334 -0.21875,-0.339844 -0.34375,-0.589844 -0.125,-0.25 -0.256528,-0.53049 -0.46875,-0.785156 C 14.766293,19.237521 14.416667,19 14,19 c -0.416667,0 -0.766293,0.237521 -0.978516,0.492188 -0.212222,0.254666 -0.34375,0.535156 -0.46875,0.785156 -0.125,0.25 -0.243472,0.46951 -0.34375,0.589844 C 12.108707,20.987521 12.083333,21 12,21 c -0.08333,0 -0.108707,-0.01248 -0.208984,-0.132812 -0.100278,-0.120334 -0.21875,-0.339844 -0.34375,-0.589844 -0.125,-0.25 -0.256528,-0.53049 -0.46875,-0.785156 C 10.766293,19.237521 10.416667,19 10,19 c -0.416667,0 -0.7662926,0.237521 -0.9785156,0.492188 -0.212222,0.254666 -0.34375,0.535156 -0.46875,0.785156 -0.125,0.25 -0.243472,0.46951 -0.34375,0.589844 C 8.1087074,20.987521 8.083333,21 8,21 7.91667,21 7.8912926,20.98752 7.7910156,20.867188 c -0.100278,-0.120334 -0.21875,-0.339844 -0.34375,-0.589844 -0.125,-0.25 -0.256528,-0.53049 -0.46875,-0.785156 C 6.7662926,19.237521 6.416667,19 6,19 Z"
     style="color:#000000;font-style:normal;font-variant:normal;font-weight:normal;font-stretch:normal;font-size:medium;line-height:normal;font-family:sans-serif;font-variant-ligatures:normal;font-variant-position:normal;font-variant-caps:normal;font-variant-numeric:normal;font-variant-alternates:normal;font-feature-settings:normal;text-indent:0;text-align:start;text-decoration:none;text-decoration-line:none;text-decoration-style:solid;text-decoration-color:#000000;letter-spacing:normal;word-spacing:normal;text-transform:none;writing-mode:lr-tb;direction:ltr;text-orientation:mixed;dominant-baseline:auto;baseline-shift:baseline;text-anchor:start;white-space:normal;shape-padding:0;clip-rule:nonzero;display:inline;overflow:visible;visibility:visible;opacity:0.8;isolation:auto;mix-blend-mode:normal;color-interpolation:sRGB;color-interpolation-filters:linearRGB;solid-color:#000000;solid-opacity:1;vector-effect:none;fill:#ffffff;fill-opacity:1;fill-rule:nonzero;stroke:#ffffff;stroke-width:2;stroke-linecap:butt;stroke-linejoin:round;stroke-miterlimit:4;stroke-dasharray:none;stroke-dashoffset:0;stroke-opacity:1;color-rendering:auto;image-rendering:auto;shape-rendering:auto;text-rendering:auto;enable-background:accumulate" />
  <path
     inkscape:connector-curvature="0"
     id="path828"
     d="M 10,3.0000001 5.0000001,17 h 3 L 9.4550782,13 H 14.544922 L 16,17 h 3 L 14,3.0000001 Z m 2,3 L 13.818359,11 h -3.636718 z"
     style="opacity:0.6;fill:#000000;fill-opacity:1;stroke:#000000;stroke-width:2;stroke-linecap:butt;stroke-linejoin:round;stroke-miterlimit:4;stroke-dasharray:none;stroke-opacity:1" />
  <path
     inkscape:connector-curvature="0"
     style="fill:#ffffff;fill-opacity:1;stroke:none;stroke-width:1px;stroke-linecap:butt;stroke-linejoin:miter;stroke-opacity:1"
     d="M 10,3.0000001 5.0000001,17 h 3 L 9.4550782,13 H 14.544922 L 16,17 h 3 L 14,3.0000001 Z m 2,3 L 13.818359,11 h -3.636718 z"
     id="path820" />
  <path
     style="color:#000000;font-style:normal;font-variant:normal;font-weight:normal;font-stretch:normal;font-size:medium;line-height:normal;font-family:sans-serif;font-variant-ligatures:normal;font-variant-position:normal;font-variant-caps:normal;font-variant-numeric:normal;font-variant-alternates:normal;font-feature-settings:normal;text-indent:0;text-align:start;text-decoration:none;text-decoration-line:none;text-decoration-style:solid;text-decoration-color:#000000;letter-spacing:normal;word-spacing:normal;text-transform:none;writing-mode:lr-tb;direction:ltr;text-orientation:mixed;dominant-baseline:auto;baseline-shift:baseline;text-anchor:start;white-space:normal;shape-padding:0;clip-rule:nonzero;display:inline;overflow:visible;visibility:visible;opacity:1;isolation:auto;mix-blend-mode:normal;color-interpolation:sRGB;color-interpolation-filters:linearRGB;solid-color:#000000;solid-opacity:1;vector-effect:none;fill:#c7162b;fill-opacity:1;fill-rule:nonzero;stroke:none;stroke-width:1px;stroke-linecap:butt;stroke-linejoin:miter;stroke-miterlimit:4;stroke-dasharray:none;stroke-dashoffset:0;stroke-opacity:1;color-rendering:auto;image-rendering:auto;shape-rendering:auto;text-rendering:auto;enable-background:accumulate"
     d="m 6,19 c -0.416667,0 -0.7662926,0.237521 -0.9785156,0.492188 -0.212222,0.254666 -0.34375,0.535156 -0.46875,0.785156 -0.125,0.25 -0.243472,0.46951 -0.34375,0.589844 C 4.1087074,20.987521 4.083333,21 4,21 v 1 c 0.416667,0 0.7662926,-0.237521 0.9785156,-0.492188 0.212222,-0.254666 0.34375,-0.535156 0.46875,-0.785156 0.125,-0.25 0.243472,-0.46951 0.34375,-0.589844 C 5.8912926,20.012479 5.916667,20 6,20 c 0.08333,0 0.1087074,0.01248 0.2089844,0.132812 0.100278,0.120334 0.21875,0.339844 0.34375,0.589844 0.125,0.25 0.256528,0.53049 0.46875,0.785156 C 7.2337074,21.762479 7.583333,22 8,22 c 0.416667,0 0.7662926,-0.237521 0.9785156,-0.492188 0.212222,-0.254666 0.34375,-0.535156 0.46875,-0.785156 0.125,-0.25 0.243472,-0.46951 0.34375,-0.589844 C 9.8912926,20.012479 9.916667,20 10,20 c 0.08333,0 0.108707,0.01248 0.208984,0.132812 0.100278,0.120334 0.21875,0.339844 0.34375,0.589844 0.125,0.25 0.256528,0.53049 0.46875,0.785156 C 11.233707,21.762479 11.583333,22 12,22 c 0.416667,0 0.766293,-0.237521 0.978516,-0.492188 0.212222,-0.254666 0.34375,-0.535156 0.46875,-0.785156 0.125,-0.25 0.243472,-0.46951 0.34375,-0.589844 C 13.891293,20.012479 13.916667,20 14,20 c 0.08333,0 0.108707,0.01248 0.208984,0.132812 0.100278,0.120334 0.21875,0.339844 0.34375,0.589844 0.125,0.25 0.256528,0.53049 0.46875,0.785156 C 15.233707,21.762479 15.583333,22 16,22 c 0.416667,0 0.766293,-0.237521 0.978516,-0.492188 0.212222,-0.254666 0.34375,-0.535156 0.46875,-0.785156 0.125,-0.25 0.243472,-0.46951 0.34375,-0.589844 C 17.891293,20.012479 17.916667,20 18,20 c 0.08333,0 0.108707,0.01248 0.208984,0.132812 0.100278,0.120334 0.21875,0.339844 0.34375,0.589844 0.125,0.25 0.256528,0.53049 0.46875,0.785156 C 19.233707,21.762479 19.583333,22 20,22 v -1 c -0.08333,0 -0.108707,-0.01248 -0.208984,-0.132812 -0.100278,-0.120334 -0.21875,-0.339844 -0.34375,-0.589844 -0.125,-0.25 -0.256528,-0.53049 -0.46875,-0.785156 C 18.766293,19.237521 18.416667,19 18,19 c -0.416667,0 -0.766293,0.237521 -0.978516,0.492188 -0.212222,0.254666 -0.34375,0.535156 -0.46875,0.785156 -0.125,0.25 -0.243472,0.46951 -0.34375,0.589844 C 16.108707,20.987521 16.083333,21 16,21 c -0.08333,0 -0.108707,-0.01248 -0.208984,-0.132812 -0.100278,-0.120334 -0.21875,-0.339844 -0.34375,-0.589844 -0.125,-0.25 -0.256528,-0.53049 -0.46875,-0.785156 C 14.766293,19.237521 14.416667,19 14,19 c -0.416667,0 -0.766293,0.237521 -0.978516,0.492188 -0.212222,0.254666 -0.34375,0.535156 -0.46875,0.785156 -0.125,0.25 -0.243472,0.46951 -0.34375,0.589844 C 12.108707,20.987521 12.083333,21 12,21 c -0.08333,0 -0.108707,-0.01248 -0.208984,-0.132812 -0.100278,-0.120334 -0.21875,-0.339844 -0.34375,-0.589844 -0.125,-0.25 -0.256528,-0.53049 -0.46875,-0.785156 C 10.766293,19.237521 10.416667,19 10,19 c -0.416667,0 -0.7662926,0.237521 -0.9785156,0.492188 -0.212222,0.254666 -0.34375,0.535156 -0.46875,0.785156 -0.125,0.25 -0.243472,0.46951 -0.34375,0.589844 C 8.1087074,20.987521 8.083333,21 8,21 7.91667,21 7.8912926,20.98752 7.7910156,20.867188 c -0.100278,-0.120334 -0.21875,-0.339844 -0.34375,-0.589844 -0.125,-0.25 -0.256528,-0.53049 -0.46875,-0.785156 C 6.7662926,19.237521 6.416667,19 6,19 Z"
     id="path824-3"
     inkscape:connector-curvature="0" />
</svg>

<svg xmlns="http://www.w3.org/2000/svg" viewBox="0 0 24 24"><path d="M6 19c-.417 0-.766.238-.979.492-.212.255-.343.535-.468.785s-.244.47-.344.59c-.1.12-.126.133-.209.133v1c.417 0 .766-.238.979-.492.212-.255.343-.535.468-.785s.244-.47.344-.59c.1-.12.126-.133.209-.133.083 0 .109.012.209.133.1.12.219.34.344.59.125.25.256.53.468.785.213.254.562.492.979.492.417 0 .766-.238.979-.492.212-.255.343-.535.468-.785s.244-.47.344-.59c.1-.12.126-.133.209-.133.083 0 .109.012.209.133.1.12.219.34.344.59.125.25.256.53.468.785.213.254.562.492.979.492.417 0 .766-.238.979-.492.212-.255.343-.535.468-.785s.244-.47.344-.59c.1-.12.126-.133.209-.133.083 0 .109.012.209.133.1.12.219.34.344.59.125.25.256.53.468.785.213.254.562.492.979.492.417 0 .766-.238.979-.492.212-.255.343-.535.468-.785s.244-.47.344-.59c.1-.12.126-.133.209-.133.083 0 .109.012.209.133.1.12.219.34.344.59.125.25.256.53.468.785.213.254.562.492.979.492v-1c-.083 0-.109-.012-.209-.133-.1-.12-.219-.34-.344-.59-.125-.25-.256-.53-.468-.785-.213-.254-.562-.492-.979-.492-.417 0-.766.238-.979.492-.212.255-.343.535-.468.785s-.244.47-.344.59c-.1.12-.126.133-.209.133-.083 0-.109-.012-.209-.133-.1-.12-.219-.34-.344-.59-.125-.25-.256-.53-.468-.785-.213-.254-.562-.492-.979-.492-.417 0-.766.238-.979.492-.212.255-.343.535-.468.785s-.244.47-.344.59c-.1.12-.126.133-.209.133-.083 0-.109-.012-.209-.133-.1-.12-.219-.34-.344-.59-.125-.25-.256-.53-.468-.785-.213-.254-.562-.492-.979-.492-.417 0-.766.238-.979.492-.212.255-.343.535-.468.785s-.244.47-.344.59c-.1.12-.126.133-.209.133-.083 0-.109-.012-.209-.133-.1-.12-.219-.34-.344-.59-.125-.25-.256-.53-.468-.785C6.766 19.238 6.417 19 6 19z" style="line-height:normal;font-variant-ligatures:normal;font-variant-position:normal;font-variant-caps:normal;font-variant-numeric:normal;font-variant-alternates:normal;font-feature-settings:normal;text-indent:0;text-align:start;text-decoration-line:none;text-decoration-style:solid;text-decoration-color:#000;text-transform:none;text-orientation:mixed;white-space:normal;shape-padding:0;isolation:auto;mix-blend-mode:normal;solid-color:#000;solid-opacity:1" color="#000" font-weight="400" font-family="sans-serif" overflow="visible" opacity=".8" fill="#fff" stroke="#fff" stroke-width="2" stroke-linejoin="round"/><path d="M10 3L5 17h3l1.455-4h5.09L16 17h3L14 3zm2 3l1.818 5h-3.636z" opacity=".6" stroke="#000" stroke-width="2" stroke-linejoin="round"/><path d="M10 3L5 17h3l1.455-4h5.09L16 17h3L14 3zm2 3l1.818 5h-3.636z" fill="#fff"/><path style="line-height:normal;font-variant-ligatures:normal;font-variant-position:normal;font-variant-caps:normal;font-variant-numeric:normal;font-variant-alternates:normal;font-feature-settings:normal;text-indent:0;text-align:start;text-decoration-line:none;text-decoration-style:solid;text-decoration-color:#000;text-transform:none;text-orientation:mixed;white-space:normal;shape-padding:0;isolation:auto;mix-blend-mode:normal;solid-color:#000;solid-opacity:1" d="M6 19c-.417 0-.766.238-.979.492-.212.255-.343.535-.468.785s-.244.47-.344.59c-.1.12-.126.133-.209.133v1c.417 0 .766-.238.979-.492.212-.255.343-.535.468-.785s.244-.47.344-.59c.1-.12.126-.133.209-.133.083 0 .109.012.209.133.1.12.219.34.344.59.125.25.256.53.468.785.213.254.562.492.979.492.417 0 .766-.238.979-.492.212-.255.343-.535.468-.785s.244-.47.344-.59c.1-.12.126-.133.209-.133.083 0 .109.012.209.133.1.12.219.34.344.59.125.25.256.53.468.785.213.254.562.492.979.492.417 0 .766-.238.979-.492.212-.255.343-.535.468-.785s.244-.47.344-.59c.1-.12.126-.133.209-.133.083 0 .109.012.209.133.1.12.219.34.344.59.125.25.256.53.468.785.213.254.562.492.979.492.417 0 .766-.238.979-.492.212-.255.343-.535.468-.785s.244-.47.344-.59c.1-.12.126-.133.209-.133.083 0 .109.012.209.133.1.12.219.34.344.59.125.25.256.53.468.785.213.254.562.492.979.492v-1c-.083 0-.109-.012-.209-.133-.1-.12-.219-.34-.344-.59-.125-.25-.256-.53-.468-.785-.213-.254-.562-.492-.979-.492-.417 0-.766.238-.979.492-.212.255-.343.535-.468.785s-.244.47-.344.59c-.1.12-.126.133-.209.133-.083 0-.109-.012-.209-.133-.1-.12-.219-.34-.344-.59-.125-.25-.256-.53-.468-.785-.213-.254-.562-.492-.979-.492-.417 0-.766.238-.979.492-.212.255-.343.535-.468.785s-.244.47-.344.59c-.1.12-.126.133-.209.133-.083 0-.109-.012-.209-.133-.1-.12-.219-.34-.344-.59-.125-.25-.256-.53-.468-.785-.213-.254-.562-.492-.979-.492-.417 0-.766.238-.979.492-.212.255-.343.535-.468.785s-.244.47-.344.59c-.1.12-.126.133-.209.133-.083 0-.109-.012-.209-.133-.1-.12-.219-.34-.344-.59-.125-.25-.256-.53-.468-.785C6.766 19.238 6.417 19 6 19z" color="#000" font-weight="400" font-family="sans-serif" overflow="visible" fill="#c7162b"/></svg>
